public/svg/java.svg

<svg width="24" height="24" viewBox="0 0 24 24" fill="none" xmlns="http://www.w3.org/2000/svg">
<path d="M8.20512 18.5368C8.20512 18.5368 7.27692 19.069 8.86512 19.249C10.7893 19.465 11.7733 19.4338 13.8943 19.039C13.8943 19.039 14.4511 19.3828 15.2299 19.6816C10.4761 21.6898 4.47012 19.5646 8.20512 18.5368ZM7.62432 15.9166C7.62432 15.9166 6.58332 16.6756 8.17212 16.837C10.2283 17.047 11.8519 17.0638 14.6611 16.531C14.6611 16.531 15.0493 16.9186 15.6613 17.131C9.91212 18.7876 3.51132 17.2618 7.62432 15.916" fill="#5382A1"/>
<path d="M12.5201 11.47C13.6919 12.7996 12.2129 13.996 12.2129 13.996C12.2129 13.996 15.1871 12.4828 13.8209 10.588C12.5459 8.81984 11.5667 7.94204 16.8641 4.91504C16.8641 4.91504 8.54986 6.96104 12.5207 11.4706" fill="#E76F00"/>
<path d="M18.8084 20.4751C18.8084 20.4751 19.4954 21.0331 18.0524 21.4651C15.308 22.2841 6.6314 22.5313 4.2212 21.4969C3.3542 21.1261 4.979 20.6101 5.4914 20.5021C6.023 20.3881 6.3284 20.4091 6.3284 20.4091C5.3642 19.7401 0.0992007 21.7231 3.6542 22.2913C13.346 23.8411 21.323 21.5929 18.8084 20.4751ZM8.651 13.2013C8.651 13.2013 4.2374 14.2339 7.088 14.6101C8.291 14.7679 10.691 14.7331 12.926 14.5483C14.7524 14.3959 16.586 14.0731 16.586 14.0731C16.586 14.0731 15.9434 14.3449 15.476 14.6593C10.9952 15.8209 2.336 15.2803 4.829 14.0923C6.9374 13.0873 8.651 13.2019 8.651 13.2019V13.2013ZM16.568 17.5633C21.125 15.2299 19.0184 12.9871 17.5484 13.2889C17.1884 13.3633 17.027 13.4269 17.027 13.4269C17.027 13.4269 17.1602 13.2211 17.4164 13.1311C20.3252 12.1231 22.562 16.1041 16.4762 17.6809C16.4762 17.6809 16.547 17.6191 16.568 17.5633Z" fill="#5382A1"/>
<path d="M13.8208 0.0258789C13.8208 0.0258789 16.345 2.51408 11.428 6.33908C7.486 9.40928 10.5286 11.1595 11.4268 13.1575C9.1246 11.1115 7.4368 9.30908 8.5696 7.63208C10.2316 5.17088 14.8396 3.97808 13.8208 0.0258789Z" fill="#E76F00"/>
<path d="M9.09884 23.8873C13.4716 24.1633 20.188 23.7343 20.347 21.6943C20.347 21.6943 20.041 22.4671 16.732 23.0809C13 23.7739 8.39564 23.6929 5.66504 23.2489C5.66504 23.2489 6.22484 23.7049 9.09884 23.8873Z" fill="#5382A1"/>
</svg>

<svg xmlns="http://www.w3.org/2000/svg" width="24" height="24" fill="none" xmlns:v="https://vecta.io/nano"><path d="M8.205 18.537s-.928.532.66.712c1.924.216 2.908.185 5.029-.21a8.83 8.83 0 0 0 1.336.643c-4.754 2.008-10.76-.117-7.025-1.145zm-.581-2.62s-1.041.759.548.92c2.056.21 3.68.227 6.489-.306 0 0 .388.388 1 .6-5.749 1.657-12.15.131-8.037-1.215" fill="#5382a1"/><path d="M12.52 11.47c1.172 1.33-.307 2.526-.307 2.526s2.974-1.513 1.608-3.408c-1.275-1.768-2.254-2.646 3.043-5.673 0 0-8.314 2.046-4.343 6.556" fill="#e76f00"/><path d="M18.808 20.475s.687.558-.756.99c-2.744.819-11.421 1.066-13.831.032-.867-.371.758-.887 1.27-.995.532-.114.837-.093.837-.093-.964-.669-6.229 1.314-2.674 1.882 9.692 1.55 17.669-.698 15.154-1.816zM8.651 13.201s-4.414 1.033-1.563 1.409c1.203.158 3.603.123 5.838-.062 1.826-.152 3.66-.475 3.66-.475s-.643.272-1.11.586c-4.481 1.162-13.14.621-10.647-.567 2.108-1.005 3.822-.89 3.822-.89v-.001zm7.917 4.362c4.557-2.333 2.45-4.576.98-4.274-.36.074-.521.138-.521.138s.133-.206.389-.296c2.909-1.008 5.146 2.973-.94 4.55 0 0 .071-.062.092-.118z" fill="#5382a1"/><path d="M13.821.026s2.524 2.488-2.393 6.313c-3.942 3.07-.899 4.82-.001 6.818-2.302-2.046-3.99-3.848-2.857-5.525 1.662-2.461 6.27-3.654 5.251-7.606z" fill="#e76f00"/><path d="M9.099 23.887c4.373.276 11.089-.153 11.248-2.193 0 0-.306.773-3.615 1.387-3.732.693-8.336.612-11.067.168 0 0 .56.456 3.434.638z" fill="#5382a1"/></svg>
